icons/hand-pointing.svg

<svg width="24" height="24" viewBox="0 0 24 24" fill="none" xmlns="http://www.w3.org/2000/svg">
<path d="M9.28999 15.0801L7.33199 11.5641C7.21573 11.3544 7.05944 11.1696 6.87199 11.0201C6.68759 10.8726 6.47537 10.7638 6.24799 10.7001C6.02153 10.6367 5.78448 10.6203 5.55145 10.6519C5.31842 10.6836 5.09433 10.7626 4.89299 10.8841C4.68853 11.0069 4.51044 11.1691 4.36899 11.3611C4.15465 11.6559 4.02869 12.0056 4.00585 12.3694C3.983 12.7331 4.06422 13.0958 4.23999 13.4151C7.14699 19.7791 8.91599 22.0001 12.86 22.0001C13.797 22.0001 14.726 21.8081 15.592 21.4361C16.4634 21.0606 17.2511 20.515 17.909 19.8311C18.5753 19.1374 19.1007 18.321 19.456 17.4271C19.8155 16.5255 20.0001 15.5637 20 14.5931V10.8891C20.0012 10.4013 19.8138 9.93192 19.477 9.57911C19.3139 9.40847 19.1181 9.2725 18.9013 9.17937C18.6844 9.08623 18.451 9.03785 18.215 9.03711C17.741 9.03711 17.287 9.23211 16.953 9.57911" stroke="white" stroke-width="2" stroke-linecap="round" stroke-linejoin="round"/>
<path d="M12.86 10.1478V9.77778C12.86 9.28578 13.048 8.81478 13.382 8.46778C13.5451 8.29702 13.7411 8.16098 13.9582 8.06784C14.1752 7.97471 14.4088 7.92638 14.645 7.92578C15.118 7.92578 15.572 8.12078 15.907 8.46778C16.242 8.81478 16.43 9.28578 16.43 9.77778V10.8878" stroke="white" stroke-width="2" stroke-linecap="round" stroke-linejoin="round"/>
<path d="M12.86 10.148V3.852C12.861 3.36406 12.6732 2.89466 12.336 2.542C12.173 2.37136 11.9772 2.23539 11.7603 2.14226C11.5434 2.04912 11.31 2.00074 11.074 2C10.601 2 10.147 2.195 9.81201 2.542C9.47498 2.8947 9.28755 3.36416 9.28901 3.852V15.08" stroke="white" stroke-width="2" stroke-linecap="round" stroke-linejoin="round"/>
</svg>

<svg
  width="24"
  height="24"
  viewBox="0 0 24 24"
  xmlns="http://www.w3.org/2000/svg"
  fill="none"
  stroke="currentColor"
  stroke-width="2"
  stroke-linecap="round"
  stroke-linejoin="round"
>
  <path d="M9.29 15.08l-1.958-3.516a1.832 1.832 0 0 0-.46-.544 1.758 1.758 0 0 0-.624-.32 1.723 1.723 0 0 0-1.355.184 1.806 1.806 0 0 0-.524.477 1.919 1.919 0 0 0-.129 2.054C7.147 19.779 8.916 22 12.86 22c.937 0 1.866-.192 2.732-.564a7.13 7.13 0 0 0 2.317-1.605 7.433 7.433 0 0 0 1.547-2.404A7.65 7.65 0 0 0 20 14.593v-3.704a1.89 1.89 0 0 0-.523-1.31 1.753 1.753 0 0 0-1.262-.542c-.474 0-.928.195-1.262.542" />
  <path d="M12.86 10.148v-.37c0-.492.188-.963.522-1.31a1.753 1.753 0 0 1 1.263-.542c.473 0 .927.195 1.262.542.335.347.523.818.523 1.31v1.11" />
  <path d="M12.86 10.148V3.852a1.89 1.89 0 0 0-.524-1.31A1.753 1.753 0 0 0 11.074 2c-.473 0-.927.195-1.262.542a1.888 1.888 0 0 0-.523 1.31V15.08" />
</svg>
